src/assets/icons/hand-wave.svg

<svg fill="none" height="24" viewBox="0 0 24 24" width="24" xmlns="http://www.w3.org/2000/svg"><path d="m0 0h24v24h-24z" fill="#fff"/><g stroke="#000"><path d="m17.0388 1c1.1733.34218 3.4687 1.73871 3.2639 4.58738" stroke-linecap="round"/><path d="m15.728 2.96603c.8604.22813 2.5437 1.15915 2.3935 3.05826" stroke-linecap="round"/><path d="m.939697 16.2913c-.016777 1.1967.629633 3.7458 3.349503 4.3688" stroke-linecap="round"/><path d="m2.93628 15.4913c-.02616.884.39766 2.7587 2.30218 3.1862" stroke-linecap="round"/><path d="m21.6533 17.8459c0 1.3231-1.1735 3.0893-1.7603 3.8071-.9014.8478-2.7129 1.5031-3.6453 1.7667-.1052.0298-.2139.0489-.323.0571-3.2236.2418-4.9081-1.4306-7.50454-4.0083-2.11226-2.097-4.50533-5.6378-5.43783-7.1461-.27241-.4681-.65379-1.4854 0-1.8099.6538-.3246 1.19444.0312 1.38303.2496.74391.8946 2.45803 2.7898 3.36329 3.2142.90525.4244.60769-.3433.34575-.7801l-3.58331-4.61852c-.29337-.46809-.72923-1.55405-.12573-2.1532.60351-.59915 1.38303-.12483 1.69736.18723 1.24682 1.43548 3.84734 4.39379 4.27478 4.74329.3045.2489.3613.0695.3385-.1597-.0186-.1868-.1063-.3578-.2062-.5167l-3.2943-5.23869c-.07111-.11308-.13253-.23229-.17126-.36013-.18986-.62674-.29758-1.65322.47295-1.90072.85496-.27461 1.63449.55131 1.91738.99859 1.17353 1.87236 3.59593 5.6982 3.89763 6.02275.1009.1085.1742.1503.2266.1512.2206.0038.0764-.38021-.0074-.58435l-.2192-.53424-2.3574-5.05536c-.1677-.42648-.3144-1.43548.44-2.05959.7544-.62412 1.5926.09361 1.9174.5305l3.3319 5.92912c.7543 1.34185 2.2757 3.72602 2.326 2.52772.0628-1.49793.9429-3.6199 2.2631-4.05678s1.383.49929 1.2259.87376c-.1572.37447-.7858 8.26952-.7858 9.92352z"/></g></svg>

<svg width="24" height="24" viewBox="0 0 24 24" fill="none" xmlns="http://www.w3.org/2000/svg">
<rect width="24" height="24" fill="white"/>
<path d="M17.0388 1C18.2121 1.34218 20.5075 2.73871 20.3027 5.58738" stroke="black" stroke-linecap="round"/>
<path d="M15.728 2.96603C16.5884 3.19416 18.2717 4.12518 18.1215 6.02429" stroke="black" stroke-linecap="round"/>
<path d="M0.939697 16.2913C0.92292 17.488 1.56933 20.0371 4.2892 20.6601" stroke="black" stroke-linecap="round"/>
<path d="M2.93628 15.4913C2.91012 16.3753 3.33394 18.25 5.23846 18.6775" stroke="black" stroke-linecap="round"/>
<path d="M21.6533 17.8459C21.6533 19.169 20.4798 20.9352 19.893 21.653C18.9916 22.5008 17.1801 23.1561 16.2477 23.4197C16.1425 23.4495 16.0338 23.4686 15.9247 23.4768C12.7011 23.7186 11.0166 22.0462 8.42016 19.4685C6.3079 17.3715 3.91483 13.8307 2.98233 12.3224C2.70992 11.8543 2.32854 10.837 2.98233 10.5125C3.63613 10.1879 4.17677 10.5437 4.36536 10.7621C5.10927 11.6567 6.82339 13.5519 7.72865 13.9763C8.6339 14.4007 8.33634 13.633 8.0744 13.1962L4.49109 8.57768C4.19772 8.10959 3.76186 7.02363 4.36536 6.42448C4.96887 5.82533 5.74839 6.29965 6.06272 6.61171C7.30954 8.04719 9.91006 11.0055 10.3375 11.355C10.642 11.6039 10.6988 11.4245 10.676 11.1953C10.6574 11.0085 10.5697 10.8375 10.4698 10.6786L7.1755 5.43991C7.10439 5.32683 7.04297 5.20762 7.00424 5.07978C6.81438 4.45304 6.70666 3.42656 7.47719 3.17906C8.33215 2.90445 9.11168 3.73037 9.39457 4.17765C10.5681 6.05001 12.9905 9.87585 13.2922 10.2004C13.3931 10.3089 13.4664 10.3507 13.5188 10.3516C13.7394 10.3554 13.5952 9.97139 13.5114 9.76725L13.2922 9.23301L10.9348 4.17765C10.7671 3.75117 10.6204 2.74217 11.3748 2.11806C12.1292 1.49394 12.9674 2.21167 13.2922 2.64856L16.6241 8.57768C17.3784 9.91953 18.8998 12.3037 18.9501 11.1054C19.0129 9.60747 19.893 7.4855 21.2132 7.04862C22.5334 6.61174 22.5962 7.54791 22.4391 7.92238C22.2819 8.29685 21.6533 16.1919 21.6533 17.8459Z" stroke="black"/>
</svg>
